build/img/svg/vk.svg

<svg width="40" height="40" viewBox="0 0 40 40" fill="none" xmlns="http://www.w3.org/2000/svg">
<rect width="40" height="40" rx="20" fill="#4680C2"/>
<mask id="mask0" mask-type="alpha" maskUnits="userSpaceOnUse" x="10" y="15" width="20" height="12">
<path d="M27.2005 22.6C28.7505 24.04 29.0705 24.73 29.1205 24.82C29.7605 25.88 28.4205 25.96 28.4205 25.96L25.8405 26C25.8405 26 25.2805 26.11 24.5605 25.61C23.5905 24.95 22.6605 23.22 21.9705 23.45C21.2605 23.68 21.2805 25.23 21.2805 25.23C21.2805 25.23 21.2805 25.45 21.1205 25.62C20.9405 25.81 20.5905 25.74 20.5905 25.74H19.4405C19.4405 25.74 16.8905 26 14.6605 23.67C12.2105 21.13 10.0505 16.13 10.0505 16.13C10.0505 16.13 9.93049 15.83 10.0605 15.66C10.2105 15.5 10.6305 15.5 10.6305 15.5H13.3905C13.3905 15.5 13.6605 15.5 13.8305 15.66C13.9805 15.77 14.0705 16 14.0705 16C14.0705 16 14.5105 17.11 15.1105 18.13C16.2605 20.12 16.7905 20.55 17.1605 20.34C17.7605 20.03 17.5905 17.53 17.5905 17.53C17.5905 17.53 17.6005 16.62 17.3005 16.22C17.0705 15.91 16.6305 15.81 16.4405 15.79C16.2805 15.77 16.5405 15.41 16.8705 15.24C17.3705 15 18.2405 15 19.2805 15C20.0905 15 20.3205 15.06 20.6305 15.13C21.5905 15.36 21.2605 16.25 21.2605 18.37C21.2605 19.06 21.1605 20 21.6305 20.33C21.8405 20.47 22.3605 20.35 23.6605 18.16C24.2605 17.12 24.7205 15.89 24.7205 15.89C24.7205 15.89 24.8205 15.68 24.9705 15.58C25.1305 15.5 25.3505 15.5 25.3505 15.5H28.2505C28.2505 15.5 29.1305 15.4 29.2705 15.79C29.4205 16.2 28.9405 17.17 27.7505 18.74C25.8105 21.34 25.5905 21.1 27.2005 22.6Z" fill="white"/>
</mask>
<g mask="url(#mask0)">
<rect width="40" height="40" rx="20" fill="white"/>
</g>
</svg>

<svg width="40" height="40" viewBox="0 0 40 40" fill="none" xmlns="http://www.w3.org/2000/svg"><rect width="40" height="40" rx="20" fill="#4680C2"/><mask id="a" maskUnits="userSpaceOnUse" x="10" y="15" width="20" height="12"><path d="M27.2 22.6c1.55 1.44 1.87 2.13 1.92 2.22.64 1.06-.7 1.14-.7 1.14l-2.58.04s-.56.11-1.28-.39c-.97-.66-1.9-2.39-2.59-2.16-.71.23-.69 1.78-.69 1.78s0 .22-.16.39c-.18.19-.53.12-.53.12h-1.15s-2.55.26-4.78-2.07c-2.45-2.54-4.61-7.54-4.61-7.54s-.12-.3.01-.47c.15-.16.57-.16.57-.16h2.76s.27 0 .44.16c.15.11.24.34.24.34s.44 1.11 1.04 2.13c1.15 1.99 1.68 2.42 2.05 2.21.6-.31.43-2.81.43-2.81s.01-.91-.29-1.31c-.23-.31-.67-.41-.86-.43-.16-.02.1-.38.43-.55.5-.24 1.37-.24 2.41-.24.81 0 1.04.06 1.35.13.96.23.63 1.12.63 3.24 0 .69-.1 1.63.37 1.96.21.14.73.02 2.03-2.17.6-1.04 1.06-2.27 1.06-2.27s.1-.21.25-.31c.16-.08.38-.08.38-.08h2.9s.88-.1 1.02.29c.15.41-.33 1.38-1.52 2.95-1.94 2.6-2.16 2.36-.55 3.86z" fill="#fff"/></mask><g mask="url(#a)"><rect width="40" height="40" rx="20" fill="#fff"/></g></svg>
